places/16/user-desktop.svg

<svg width="16" version="1.1" xmlns="http://www.w3.org/2000/svg" viewBox="0 0 16 16" height="16">
<defs id="defs3051">
<style type="text/css" id="current-color-scheme">
.ColorScheme-Text {
color:#4d4d4d;
}
</style>
</defs>
<path style="fill:currentColor" d="m 2,2 v 12 h 12 v -12 h -12 z  m 1,1 h 10 v 10 h -10 v -10 z  m 1,7 v 2 h 8 v -2 h -8 z " class="ColorScheme-Text"/>
</svg>

<svg xmlns="http://www.w3.org/2000/svg" viewBox="0 0 16 16">
  <defs id="defs3051">
    <style type="text/css" id="current-color-scheme">
      .ColorScheme-Text {
        color:#4d4d4d;
      }
      </style>
  </defs>
    <path 
        style="fill:currentColor;fill-opacity:1;stroke:none" 
          d="M 2 2 L 2 14 L 14 14 L 14 2 L 2 2 z M 3 3 L 13 3 L 13 12 L 13 13 L 3 13 L 3 12 L 3 3 z M 4 11 L 4 12 L 12 12 L 12 11 L 4 11 z " 
          class="ColorScheme-Text"/>
</svg>
